X:1
T:Title
%%score { 1 | 2 }
L:1/8
M:4/4
K:Eb
V:1 treble nm="Grand Piano"
V:2 bass 
V:1
 z4 z2 z[Q:1/4=100] G | G2 G2 G3 A | G2 E2 G3 G | B2 B2 B3 c |[M:7/8] B2 G2 [DF]3 |[M:1/8] [DF] | %6
[M:4/4] [EG]2 [FG]2 [EG]3 [EG] | =A2 c2 [DB]3 [_AB] | [Ge]2 [Ae]2 [Ge]3 [B,EG] | %9
 [B,DG]3 [A,DF] [G,E]4 | [GB]2 [GB]>[Ac] [GB]3 G | F2 E2 B3 [AB] | [GB]2 [EG]2 [GB]3 [Ac] | %13
[M:7/8] [GB]2 [EG]2 [DF]3 |[M:1/8] [DB] |[M:4/4] B3 c B3 G | E2 F2 G3 [GB] | %17
 [Ge]2 [Ae]2 [Ge]3 [B,EG] | %18
[M:19/16] [B,DG]/-[B,DG]/-[B,DG]-<[B,DG][A,DF]-<[A,DF][G,E]/-[G,E]/-[G,E]/-[G,E]/-[G,E]/-[G,E]-<[G,E] |] %19
V:2
 z4 z2 z [E,B,E] | [E,B,E]2 [E,B,E]2 [E,B,E]3 [E,CE] | [E,B,E]2 [E,G,B,]2 [E,B,E]3 [E,B,E] | %3
 [E,G,E]2 [F,A,D]2 [G,B,E]3 [A,E] |[M:7/8] [G,E]2 [E,B,E]2 [B,,B,]3 |[M:1/8] [B,,B,] | %6
[M:4/4] [E,B,]2 [D,=B,]2 [C,C]3 [C,G,] | [F,E]2 [F,=A,E]2 [B,,B,]3 [D,B,] | %8
 [E,B,]2 [E,C]2 [E,B,]3 E, | B,,3 B,, E,4 | [E,E]2 [E,E]>[E,E] [E,E]3 [E,B,E] | %11
 [A,B,D]2 [G,B,]2 [F,B,D]3 [D,B,] | [E,E]2 [E,B,]2 [E,E]3 [E,E] |[M:7/8] [E,E]2 [E,B,]2 [B,,B,]3 | %14
[M:1/8] [B,,A,] |[M:4/4] [E,G,E]3 [E,A,E] [E,G,E]3 [E,B,E] | [G,B,]2 [F,B,D]2 [E,B,E]3 [E,E] | %17
 [E,B,]2 [E,C]2 [E,B,]3 E, |[M:19/16] B,,/-B,,/-B,,-<B,,B,,-<B,,E,/-E,/-E,/-E,/-E,/-E,-<E, |] %19

